X:117
M:C
L:1/8
K:G
|: (B,D).D.D (CE).E.E | (A,F).F.F GDB,G, | (B,D).D.D (CE).E.E | A,cAF G2 [G,2G2] :|
|: .b(gfg) .d(gfg) | .d(BAG) .A(FED) | .b(gfg) .d(gfg) | dcBA G4 :|

